src/static/images/nav_2.svg

<svg version="1.2" xmlns="http://www.w3.org/2000/svg" overflow="visible" preserveAspectRatio="none" viewBox="0 -3.999 51 51" width="28" height="28"><path d="M42.9 0H8.5L0 13.3V43h51V13.3L42.9 0zm-1.2 2l6.7 11H29.9l-.8-11h12.6zM22.9 2H27l.8 11H22l.9-11zM22 15h6v9h-6v-9zM9.6 2h11.3l-.8 11H2.6l7-11zM49 41H2V15h18v11h10V15h19v26zM39 31h7c.6 0 1-.4 1-1s-.4-1-1-1h-7c-.6 0-1 .4-1 1s.4 1 1 1zm-7 4h14c.6 0 1-.4 1-1s-.4-1-1-1H32c-.6 0-1 .4-1 1s.4 1 1 1zm14 2h-9c-.6 0-1 .4-1 1s.4 1 1 1h9c.6 0 1-.4 1-1s-.4-1-1-1z" vector-effect="non-scaling-stroke" fill="#fff"/></svg>

<svg version="1.2" xmlns="http://www.w3.org/2000/svg" xmlns:xlink="http://www.w3.org/1999/xlink" overflow="visible" preserveAspectRatio="none" viewBox="0 -3.9991568296795954 51 51" width="28" height="28"><g>
	<g>
		<path d="M42.9,0H8.5L0,13.3V43h51V13.3L42.9,0z M41.7,2l6.7,11H29.9L29.1,2H41.7z M22.9,2h4.1l0.8,11h-5.8L22.9,2z M22,15h6v9h-6    V15z M9.6,2h11.3l-0.8,11H2.6L9.6,2z M49,41H2V15h18v11h10V15h19V41z M39,31h7c0.6,0,1-0.4,1-1c0-0.6-0.4-1-1-1h-7    c-0.6,0-1,0.4-1,1C38,30.6,38.4,31,39,31z M32,35h14c0.6,0,1-0.4,1-1c0-0.6-0.4-1-1-1H32c-0.6,0-1,0.4-1,1C31,34.6,31.4,35,32,35z     M46,37h-9c-0.6,0-1,0.4-1,1c0,0.6,0.4,1,1,1h9c0.6,0,1-0.4,1-1C47,37.4,46.6,37,46,37z" style="fill: rgb(255, 255, 255);" vector-effect="non-scaling-stroke"/>
	</g>
</g><g/></svg>
